app/images/grid__icon_breaks.svg

<svg width="63" height="63" viewBox="0 0 63 63" fill="none" xmlns="http://www.w3.org/2000/svg">
<path d="M38.6131 21.3386H37.915C36.0982 22.6149 33.8891 23.3709 31.5002 23.3709C29.1113 23.3709 26.9022 22.6149 25.0854 21.3386H24.3873L19.3066 32.516H21.3389C21.8998 32.516 22.355 32.9713 22.355 33.5322V45.7257C22.355 48.5272 24.6342 50.8064 27.4357 50.8064H35.5647C38.3662 50.8064 40.6453 48.5272 40.6453 45.7257V33.5322C40.6453 32.9713 41.1006 32.516 41.6615 32.516H43.6937L38.6131 21.3386Z" fill="#C40B0B"/>
<path d="M31.5001 18.2905C32.9135 18.2905 34.2904 17.7966 35.3787 16.8984L34.0851 15.3305C33.3596 15.929 32.442 16.2582 31.5001 16.2582C29.2585 16.2582 27.4356 14.4353 27.4356 12.1937C27.4356 9.95212 29.2585 8.12918 31.5001 8.12918C33.7417 8.12918 35.5646 9.95212 35.5646 12.1937C35.5646 12.8958 35.3827 13.5878 35.0383 14.1955L36.8063 15.1974C37.3235 14.2849 37.5969 13.2464 37.5969 12.1937C37.5969 8.83133 34.8625 6.09692 31.5001 6.09692C28.1377 6.09692 25.4033 8.83133 25.4033 12.1937C25.4033 15.5561 28.1377 18.2905 31.5001 18.2905Z" fill="#02133C"/>
<path d="M11.1773 20.3225C8.37586 20.3225 6.09668 22.6017 6.09668 25.4032C6.09668 28.2046 8.37586 30.4838 11.1773 30.4838C13.9788 30.4838 16.258 28.2046 16.258 25.4032C16.258 22.6017 13.9788 20.3225 11.1773 20.3225ZM14.0387 24.387H12.1935V22.5417C13.0541 22.8486 13.7319 23.5264 14.0387 24.387ZM10.1612 22.5417V24.387H8.31591C8.62278 23.5264 9.30054 22.8486 10.1612 22.5417ZM8.31591 26.4193H10.1612V28.2646C9.30054 27.9577 8.62278 27.2799 8.31591 26.4193ZM12.1935 28.2646V26.4193H14.0387C13.7319 27.2799 13.0541 27.9577 12.1935 28.2646Z" fill="#02133C"/>
<path d="M51.8226 20.3225C49.0211 20.3225 46.7419 22.6017 46.7419 25.4032C46.7419 28.2046 49.0211 30.4838 51.8226 30.4838C54.624 30.4838 56.9032 28.2046 56.9032 25.4032C56.9032 22.6017 54.624 20.3225 51.8226 20.3225ZM54.684 24.387H52.8387V22.5417C53.6994 22.8486 54.3771 23.5264 54.684 24.387ZM50.8065 22.5417V24.387H48.9612C49.268 23.5264 49.9458 22.8486 50.8065 22.5417ZM48.9612 26.4193H50.8065V28.2646C49.9458 27.9577 49.268 27.2799 48.9612 26.4193ZM52.8387 28.2646V26.4193H54.684C54.3771 27.2799 53.6994 27.9577 52.8387 28.2646Z" fill="#02133C"/>
<path d="M31.4998 31.5C28.6984 31.5 26.4192 33.7792 26.4192 36.5806C26.4192 39.3821 28.6984 41.6613 31.4998 41.6613C34.3013 41.6613 36.5805 39.3821 36.5805 36.5806C36.5805 33.7792 34.3013 31.5 31.4998 31.5ZM31.4998 39.629C29.8192 39.629 28.4514 38.2613 28.4514 36.5806C28.4514 34.9 29.8192 33.5323 31.4998 33.5323C33.1805 33.5323 34.5482 34.9 34.5482 36.5806C34.5482 38.2613 33.1805 39.629 31.4998 39.629Z" fill="#02133C"/>
<path d="M63 33.5323C63 19.2201 53.3823 6.74506 39.5843 3.09005C37.4301 1.17465 34.6033 0 31.5 0C28.3967 0 25.5699 1.17465 23.4157 3.09005C9.61766 6.74506 0 19.2201 0 33.5323V34.5484H2.05766C2.59621 50.3268 15.5925 63 31.5 63C47.4075 63 60.4038 50.3268 60.9423 34.5484H63V33.5323ZM31.5 2.03226C37.1029 2.03226 41.6613 6.59061 41.6613 12.1935C41.6613 17.7965 37.1029 22.3548 31.5 22.3548C25.8971 22.3548 21.3387 17.7965 21.3387 12.1935C21.3387 6.59061 25.8971 2.03226 31.5 2.03226ZM21.0095 6.00837C19.9344 7.82419 19.3065 9.93469 19.3065 12.1935C19.3065 15.6098 20.7229 18.6978 22.994 20.914L17.64 32.5161H2.04953C2.45598 20.5868 10.0058 10.1897 21.0095 6.00837ZM31.5 60.9677C16.7133 60.9677 4.62745 49.2071 4.08992 34.5484H18.9406L24.6167 22.2492C26.5769 23.5955 28.9475 24.3871 31.5 24.3871C34.0525 24.3871 36.4231 23.5955 38.3833 22.2492L44.0594 34.5484H54.871V32.5161H45.36L40.006 20.914C42.2771 18.6978 43.6935 15.6098 43.6935 12.1935C43.6935 9.93469 43.0656 7.82419 41.9905 6.00837C52.9942 10.1897 60.544 20.5868 60.9505 32.5161H56.9032V34.5484H58.9101C58.3725 49.2071 46.2867 60.9677 31.5 60.9677Z" fill="#02133C"/>
</svg>

<svg width="63" height="63" fill="none" xmlns="http://www.w3.org/2000/svg"><path d="M38.613 21.339h-.698A11.12 11.12 0 0131.5 23.37a11.12 11.12 0 01-6.415-2.032h-.698l-5.08 11.177h2.032c.56 0 1.016.455 1.016 1.016v12.194c0 2.801 2.28 5.08 5.08 5.08h8.13a5.086 5.086 0 005.08-5.08V33.532c0-.56.456-1.016 1.016-1.016h2.033l-5.08-11.177z" fill="#C40B0B"/><path d="M31.5 18.29c1.413 0 2.79-.493 3.879-1.392l-1.294-1.567a4.07 4.07 0 01-2.585.927 4.069 4.069 0 01-4.064-4.064A4.069 4.069 0 0131.5 8.129a4.069 4.069 0 013.538 6.066l1.768 1.002c.518-.912.79-1.95.79-3.003A6.103 6.103 0 0031.5 6.097a6.103 6.103 0 00-6.097 6.097A6.103 6.103 0 0031.5 18.29zm-20.323 2.033a5.086 5.086 0 00-5.08 5.08 5.085 5.085 0 005.08 5.08 5.085 5.085 0 005.081-5.08c0-2.801-2.28-5.08-5.08-5.08zm2.862 4.064h-1.845v-1.845c.86.307 1.538.984 1.845 1.845zm-3.878-1.845v1.845H8.316a3.046 3.046 0 011.845-1.845zm-1.845 3.877h1.845v1.846a3.046 3.046 0 01-1.845-1.846zm3.877 1.846v-1.846h1.846a3.045 3.045 0 01-1.845 1.846zm39.63-7.942a5.086 5.086 0 00-5.081 5.08c0 2.802 2.28 5.08 5.08 5.08a5.085 5.085 0 005.081-5.08 5.086 5.086 0 00-5.08-5.08zm2.861 4.064h-1.845v-1.845c.86.307 1.538.984 1.845 1.845zm-3.877-1.845v1.845H48.96a3.045 3.045 0 011.846-1.845zm-1.846 3.877h1.846v1.846a3.045 3.045 0 01-1.846-1.846zm3.878 1.846v-1.846h1.845a3.046 3.046 0 01-1.845 1.846zM31.5 31.5a5.086 5.086 0 00-5.08 5.08 5.085 5.085 0 005.08 5.081 5.086 5.086 0 005.08-5.08A5.086 5.086 0 0031.5 31.5zm0 8.129a3.052 3.052 0 01-3.049-3.048 3.052 3.052 0 013.049-3.049 3.052 3.052 0 013.048 3.049 3.052 3.052 0 01-3.048 3.048z" fill="#02133C"/><path d="M63 33.532C63 19.22 53.382 6.745 39.584 3.09A12.129 12.129 0 0031.5 0a12.13 12.13 0 00-8.084 3.09C9.618 6.745 0 19.22 0 33.532v1.016h2.058C2.596 50.327 15.592 63 31.5 63c15.907 0 28.904-12.673 29.442-28.452H63v-1.016zm-31.5-31.5c5.603 0 10.161 4.559 10.161 10.162 0 5.603-4.558 10.16-10.161 10.16s-10.161-4.557-10.161-10.16S25.897 2.031 31.5 2.031zM21.01 6.008a12.1 12.1 0 00-1.704 6.186c0 3.416 1.417 6.504 3.688 8.72L17.64 32.516H2.05c.406-11.93 7.956-22.326 18.96-26.508zm10.49 54.96c-14.787 0-26.873-11.76-27.41-26.42h14.85l5.677-12.299a12.12 12.12 0 006.883 2.138 12.12 12.12 0 006.883-2.138l5.676 12.3h10.812v-2.033H45.36l-5.354-11.602a12.153 12.153 0 003.688-8.72 12.1 12.1 0 00-1.704-6.186c11.004 4.182 18.554 14.579 18.96 26.508h-4.047v2.032h2.007c-.537 14.66-12.623 26.42-27.41 26.42z" fill="#02133C"/></svg>
